!!!COM: Emmanuel Chabrier
!!!CNT: Francais
!!!TXO: Francais
!!!OTL: "Pastorale des cochons roses"
!!!LYR: Rostand
!!!OPR:
!!!OPS:
!!!ONM:
!!!ENC: Emily Thomas
!!!YOR: CD Sheet Music French Art Songs, The Ultimate Collection
!!!YOR: CD Sheet Music, LLC 2003
!!!ODT: 1889/
!!NB: Vocal melody and text encoded.
**kern	**silbe
=0	=0
*clefG2	*
*k[f#c#g#d#]	*
*M2/2	*
*MM[Anime/]	*
1r	.
=2	=2
1r	.
=3	=3
1r	.
=4	=4
2r	.
8r	.
{8e	{Le
8f#	jours
8e	s'an-
=5	=5
*k[f#]	*
4.d	-nonce
8f#	a\
4a	l'O-
4dd	-ri-
=6	=6
[2b	-ent,
8b]}	|}
8r	.
{4e	{De
=7	=7
4.d	pour-
8f#	=pre
8d	se
8a	co-
8f#	-lo-
8dd	-ri-
=8	=8
[2b	-ant,
8b]}	|}
8r	.
{4b	{Le
=9	=9
4ee	doigt
8dd	du
8cc	ma-
4b	-tin
8a	sour-
8dd	-i-
=10	=10
8dd}	-ant}
8r	.
{4b	{Ou-
4a	-vre
4g	les
=11	=11
4.c	ro-
8e	|
8d	|
8f#	|
8e	|
8g	|
=12	=12
8f#	|
8a	|
[4d	-ses!
8d]}	|}
{8e	{Et
8f#	sous
8e	la
=13	=13
4.d	gar-
8f#	-de
4a	d'un
4dd	ga-
=14	=14
[2b	-min
8b]}	|}
8r	.
{8f#	{Qui
8e	|
=15	=15
4.d	tient
8f#	u-
8d	-ne
8a	gaule
8f#	a\
8dd	la
=16	=16
[2b	main,
8b]}	|}
8r	.
{4b	{On
=17	=17
4ee	voit
4dd	pas-
8cc#	-ser
8b	sur
8dd	le
8dd	che-
=18	=18
8cc#}	-min}
8r	.
{8cc##	{Les
16dd#	|
16r	.
4b	co-
4d#	-chons
=19	=19
4.e	ro-
8g#	|
8f#	|
8a#	|
8g#	|
8b	|
=20	=20
8a#	|
8cc#	|
[4f#	-ses;
8f#]}	|}
{8f#	{Le
8g#	ro-
8an	-se
=21	=21
4.b	rare
8a	au
4b	ton
4cc#	char-
=22	=22
[2e	-mant
8e]}	|}
{8g#	{Qu'a\
8a#	l'ho-
8b	-ri-
=23	=23
4.cc#	-zon,
8b	en
8cc#	ce
8dd#	|
8f#	mo-
8g#	|
=24	=24
[2f#	-ment,
16f#_	|
16f#]}	|}
8r	.
{4cc#	{La\-
=25	=25
4.an	-bas,
8c#	au
8d#	bord
8f#	du
8a	firm-
8b	-a-
=26	=26
8ee-}	-ment}
8r	.
{4b-	{On
4ccn	voit
4ddn	s'e/-
=27	=27
4.cc	-ten-
8b-	|
8cc	|
8dd	|
8b-	|
8cc	|
=28	=28
8b-}	-dre,}
8r	.
{4e-	{Ne
4d	re/-
4d	-jou-
=29	=29
*k[f#c#g#d#]	*
4.c#	-it
8c##	pas
4d#	tant
8d#q	les
4b	|
=30	=30
4d#}	yeux,}
{4e	{N'est
4g#	pas
4cc#	si
=31	=31
4e#	frais
4f#	et
4a	si
4dd#	joy-
=32	=32
4f##	-eux
8g#	Que
8b	ce-
[2ee	-lui
=33	=33
8ee]}	|}
8r	.
{8c#	{des
8d#	co-
4dd#	-chons
4cc#	soy-
=34	=34
4b	-eux,
4e	D'un
4f#	ro-
4g#	-se
=35	=35
4.f#	ten-
8e	|
8f#	|
8g#	|
8e	|
8f#	|
=36	=36
[2e	-dre!
8e]}	|}
8r	.
4r	.
=37	=37
1r	.
=38	=38
1r	.
=39	=39
1r	.
=40	=40
2r	.
4r	.
{8f#	{Le
8e	-ze/-
=41	=41
*k[f#]	*
[8d	-phir,
16d]}	|}
16r	.
8r	.
{8f#	{ce
4a	doux
8a	m-
8dd	-rau-
=42	=42
[2.b	-deur,
8b]}	|}
8r	.
=43	=43
{4d	{Por-
8d	-te
8f#	plus
8d	d'un
8a	par-
8f#	-fum
8dd	ro-
=44	=44
[2b	-deur,
8b]}	|}
8r	.
{4b	{Et,
=45	=45
8ee	dans
8ee	la
8dd	ma-
8cc	-ti-
4b	-nale
8a	o-
8dd	|
=46	=46
8dd}	-deur}
8r	.
{4b	{Des
4a	e/-
4g	-glan-
=47	=47
4.c	-ti-
8e	|
8d	|
8f	|
8e	|
8g	|
=48	=48
8f#	|
8a	|
[4d	-nes,
8d]}	|}
8r	.
{8f#	{Les
8e	pe-
=49	=49
8d	-tits
8f#	co-
4a	-chons
4a	trans-
4dd	-por-
=50	=50
2b}	-te/s}
{4f#	{Ont
4e	d'ex-
=51	=51
4..e	-qui-
32f#	|
32e	|
8d	-ses
8a	vi-
8f#	-va-
8dd	-ci-
=52	=52
[2b	-te/s
8b]}	|}
8r	.
{8b	{Et
8b	d'in-
=53	=53
8ee	-sou-
8ee	-ci-
4.b	-an-
8dd	|
8b	-tes
8dd	gaie-
=54	=54
8cc#}	-te/s}
8r	.
{8cc##	{Pres-
16dd#	|
16r	.
4b	qu'en
4d#	-fan-
=55	=55
4.e	-ti-
8g#	|
8f#	|
8a#	|
8g#	|
8b	|
=56	=56
8a#	|
8cc#	|
[4f#	-nes;
8f#]}	|}
8r	.
{4b	{Heu-
=57	=57
4.b	-reux,
8an	pous-
8b	-sant
8b	de
8cc#	pe-
8cc#	-tits
=58	=58
[2e	cris,
8e]}	|}
8r	.
{4cc#	{Ils
=59	=59
4.cc#	vont
8b	par
8cc#	les
8dd#	sen-
8f#	-tiers
8a#q	fleu-
8g#	|
=60	=60
[2f#	-ris
8f#]}	|}
8r	.
{8g#	{Et
8cc#	ce
=61	=61
8b	sont
8an	des
4.d#	jeux
8f#	|
8a	et
8b	des
=62	=62
8ee-}	ris}
8r	.
{4b-	{Rem-
4ccn	-plis
4ddn	de
=63	=63
4.cc	gra\-
8b-	|
8cc	|
8dd	|
8b-	|
8cc	|
=64	=64
8b-}	-ces,}
8r	.
{4e-	{Ils
4d}	vont,}
{4d	{et
=65	=65
*k[f#c#g#d#]	*
4c#	tous
4c##	ces
4d#	corps
4b	char-
=66	=66
4d	-nus
4e	|
4g#	Sont
4cc#	si
=67	=67
4e#	ro-
[4f#	-ses,
8f#]	|
8a	qu'ils
8dd	sem-
8dd	-blent
=68	=68
8f##}	nus}
8r	.
{8g#	{Com-
8b	-me
[2ee	ceux
=69	=69
4ee]}	|}
{4c#	{d'a-
4d#	-mours
8dd#	in-
8cc#	-ge/-
=70	=70
8b}	-nus}
8r	.
{4e	{Aux
4f#	for-
4g#	-mes
=71	=71
4.f#	gras-
8e	|
8f#	|
8g#	|
8e	|
8f#	|
=72	=72
[2e	-ses
8e]}	|}
8r	.
4r	.
=73	=73
1r	.
=74	=74
1r	.
=75	=75
1r	.
=76	=76
2r	.
4r	.
{8f#	{Des
8e	points
=77	=77
*k[f#]	*
4d	noirs,
8f#	dans
8a	ce
4dd	ro-
4dd	-se
=78	=78
[2b	clair,
8b]}	|}
8r	.
{4e	{Sem-
=79	=79
4.d	-blant
8f#	des
8d	truf-
8a	-fes
8f#	dans
8dd	leur
=80	=80
[2b	chair,
8b]}	|}
8r	.
{4b	{Leur
=81	=81
8ee	don-
8ee	-nent
8dd	vag-
8cc	-ue-
4b	-ment
8a	un
8dd	|
=82	=82
8dd}	air}
8r	.
{4b	{De
4a	ga-
4g	-lan-
=83	=83
4.c	-ti-
8e	|
8d	|
8f#	|
8e	|
8g	|
=84	=84
8f#	|
8a	|
[4d	ne;
8d]}	|}
{8e	{Et
8f#	leur
8e	pe-
=85	=85
4d	-tit
4f#	trot-
4a	-ti-
4dd	-ne-
=86	=86
[2b	-ment,
8b]}	|}
{8e	{A
8f#	cet-
8e	-te
=87	=87
4.d	graisse,
8f#	in-
8d	-ces-
8a	|
8f#	-sam-
8dd	|
=88	=88
[2b	-ment,
8b]}	|}
8r	.
{8b	{Com-
8b	-mu-
=89	=89
4ee	-nique
8dd	un
8dd	trem-
8cc#	-blot-
8dd	|
8b	-te-
8dd	|
=90	=90
8cc#}	-ment}
8r	.
{8cc##	{De
16dd#	|
16r	.
4b	ge/-
4d#	-la-
=91	=91
4.e	-ti-
8g#	|
8f#	|
8a#	|
8g#	|
8b	|
=92	=92
8a#	|
8cc#	|
[4f#	-ne.
8f#]}	|}
8r	.
{4b	{Le
=93	=93
4b	long
8an	du
8a	rui-
4b	-sseau
8cc#	flo-
8cc#	-flot-
=94	=94
[2e	-tant,
8e]}	|}
8r	.
{4cc#	{Ils
=95	=95
4.cc#	sui-
8b	-vent
8cc#	tout
8dd#	en
8f#	ron-
8a#q	-flo-
8g#	|
=96	=96
[2f#	-tant,
8f#]}	|}
8r	.
{4cc#	{La
=97	=97
4.an	blouse
8c#	au
8d#	lar-
8f#	-ge
8a	dos
8b	flot-
=98	=98
8ee-}	-tant}
8r	.
{4b-	{De
4ccn	toi-
4ddn	-le
=99	=99
4.cc	bleu-
8b-	|
8cc	|
8dd	|
8b-	|
8cc	|
=100	=100
8b-}	-e,}
8r	.
{8e-	{Ils
8r	.
8dn	trot-
8r	.
8d	-tent
8r	.
=101	=101
*k[f#c#g#d#]	*
4r	.
8c#	les
8c##	pe-
8d#	-tits
8r	.
8b	co-
8r	.
=102	=102
4d#}	-chons,}
{4e	{Les
4g#	go-
4cc#	-re\ts
=103	=103
4e#	gras
4f#	et
4a	fo-
4dd#	-li-
=104	=104
8f##}	-chons,}
8r	.
{8g#	{Re-
8b	-mu-
[2ee	-ant
=105	=105
8ee]}	|}
8r	.
{4c#	{les
4d#	ti-
8dd#	-re-
8cc#	-bou-
=106	=106
8b}	-chons}
8r	.
{4e	{Que
4f#	fait
4g#	leur
=107	=107
4.f#	queu-
8e	|
8f#	|
8g#	|
8e	|
8f#	|
=108	=108
[2e	-e!
8e]}	|}
8r	.
4r	.
=109	=109
1r	.
=110	=110
1r	.
=111	=111
1r	.
=112	=112
2r	.
{8e	{Puis,
8r	.
8f#	quand
8e	les
=113	=113
*k[f#]	*
4d	champs
4f#	sans
4a	pa-
4dd	-pil-
=114	=114
[2b	-lons
8b]}	|}
{8g	{Ex-
8f#	-ha-
8e	-le-
=115	=115
4.d	-ront,
8f#	de
8d	leurs
8a	|
8f#	sil-
8dd	|
=116	=116
8b}	-lons,}
8r	.
{4b	{Les
4ee	plain-
4b	-tes
=117	=117
4ee	dou-
8dd	-ces
8cc	|
4b	des
8a	gril-
8dd	|
=118	=118
8dd}	-lons}
8r	.
{4b	{Tou-
4a	-jours
4g	pa-
=119	=119
4.c	-reil-
8e	|
8d	|
8f#	|
8e	|
8g	|
=120	=120
8f#	|
8a	|
[4d	-les,
8d]}	|}
8r	.
{8f#	{Le
8e	co-
=121	=121
4.d	-chons,
8f#	ren-
4a	-trant
8a	au
8dd	ber-
=122	=122
[2b	-cail,
8b]}	|}
{8e	{De/-
8f#	-fi-
8e	-le-
=123	=123
4.d	-ront
8f#	sous
8d	le
8a	|
8f#	por-
8dd	|
=124	=124
[2b	-tail,
8b]}	|}
8r	.
{8b	{A-
8b	-gi-
=125	=125
4ee	-tant
4dd	|
8cc#	le
8dd	double
8b	e/-
8dd	-ven-
=126	=126
8cc#}	-tail}
8r	.
{8cc##	{De
16dd#	|
16r	.
4b	leurs
4d#	o-
=127	=127
4.e	-reil-
8g#	|
8f#	|
8a#	|
8g#	|
8b	|
=128	=128
8a#	|
8cc#	|
[4f#	-les;
8f#]}	|}
{8f#	{Et
8g#	quand,
8an	la\-
=129	=129
4.b	-bas,
8a	a\
4b	l'oc-
4cc#	-ci-
=130	=130
[2e	-dent,
8e]}	|}
8r	.
{8c#	{Crou-
8cc#	-le-
=131	=131
4.cc#	-ra
8b	|
8cc#	le
8dd#	sol-
8f#	-eil
8a#q	ar-
8g#	|
=132	=132
[2f#	-dent,
8f#]}	|}
8r	.
{4cc#	{A
=133	=133
4.an	l'heure
8c#	ou\
8d#	le
8f#	soir
8a	des-
8b	-cent-
=134	=134
8ee-}	-dant}
8r	.
{4b-	{Fer-
4ccn	-me
4ddn	les
=135	=135
4.cc	ro-
8b-	|
8cc	|
8dd	|
8b-	|
8cc	|
=136	=136
8b-}	-ses,}
8r	.
{4e-	{Pai-
4d	-si-
4d	-ble-
=137	=137
*k[f#c#g#d#]	*
4.c#	-ment
8c##	couch-
4d#	-e/s
4b	en
=138	=138
8d#}	rond,}
8r	.
4r	.
{4g#	{Pre\s
4cc#	de
=139	=139
4e#	l'au-
8f#	-ge
8f#	cou-
4a	-leur
4dd#	mar-
=140	=140
8f##	-ron,
8r	.
8g#	Bien
8b	re-
[2ee	-pus
=141	=141
8ee]}	|}
8r	.
{8c#	{ils
8d#	s'en-
4dd#	-dor-
4cc#	-mi-
=142	=142
[8b	-ront,
16b]}	|}
16r	.
{4e	{Les
4f#	co-
4g#	-chons
=143	=143
4.f#	ro-
8e	|
8f#	|
8g#	|
8e	|
8g#q	|
8f#	|
=144	=144
[2e	ses!
8e]}	|}
8r	.
4r	.
==	==
*-	*-
